dist/img/instagram_logo.svg

<svg width="30" height="28" viewBox="0 0 30 28" fill="none" xmlns="http://www.w3.org/2000/svg">
<path d="M15.0067 7.26172C10.7478 7.26172 7.31251 10.2676 7.31251 13.9941C7.31251 17.7207 10.7478 20.7266 15.0067 20.7266C19.2656 20.7266 22.7009 17.7207 22.7009 13.9941C22.7009 10.2676 19.2656 7.26172 15.0067 7.26172ZM15.0067 18.3711C12.2545 18.3711 10.0045 16.4082 10.0045 13.9941C10.0045 11.5801 12.2478 9.61718 15.0067 9.61718C17.7656 9.61718 20.0089 11.5801 20.0089 13.9941C20.0089 16.4082 17.7589 18.3711 15.0067 18.3711ZM24.8103 6.98633C24.8103 7.85937 24.0067 8.55664 23.0156 8.55664C22.0179 8.55664 21.221 7.85351 21.221 6.98633C21.221 6.11914 22.0246 5.41601 23.0156 5.41601C24.0067 5.41601 24.8103 6.11914 24.8103 6.98633ZM29.9062 8.58007C29.7924 6.47656 29.2433 4.61328 27.4821 3.07812C25.7277 1.54297 23.5982 1.0625 21.1942 0.957031C18.7165 0.833984 11.2902 0.833984 8.81251 0.957031C6.41519 1.05664 4.28573 1.53711 2.52457 3.07226C0.76341 4.60742 0.220999 6.4707 0.100464 8.57421C-0.0401611 10.7422 -0.0401611 17.2402 0.100464 19.4082C0.214303 21.5117 0.76341 23.375 2.52457 24.9101C4.28573 26.4453 6.4085 26.9258 8.81251 27.0312C11.2902 27.1543 18.7165 27.1543 21.1942 27.0312C23.5982 26.9316 25.7277 26.4512 27.4821 24.9101C29.2366 23.375 29.7857 21.5117 29.9062 19.4082C30.0469 17.2402 30.0469 10.748 29.9062 8.58007ZM26.7054 21.7344C26.183 22.8828 25.1719 23.7676 23.8527 24.2305C21.8772 24.916 17.1897 24.7578 15.0067 24.7578C12.8237 24.7578 8.12948 24.9101 6.16073 24.2305C4.84823 23.7734 3.83707 22.8887 3.30805 21.7344C2.52457 20.0058 2.70537 15.9043 2.70537 13.9941C2.70537 12.084 2.53127 7.97656 3.30805 6.2539C3.83037 5.10547 4.84153 4.2207 6.16073 3.75781C8.13617 3.07226 12.8237 3.23047 15.0067 3.23047C17.1897 3.23047 21.8839 3.07812 23.8527 3.75781C25.1652 4.21484 26.1763 5.09961 26.7054 6.2539C27.4888 7.98242 27.308 12.084 27.308 13.9941C27.308 15.9043 27.4888 20.0117 26.7054 21.7344Z" fill="black"/>
</svg>

<svg width="30" height="28" fill="none" xmlns="http://www.w3.org/2000/svg"><path d="M15.007 7.262c-4.26 0-7.694 3.006-7.694 6.732 0 3.727 3.435 6.733 7.694 6.733S22.7 17.72 22.7 13.994c0-3.726-3.435-6.732-7.694-6.732zm0 11.11c-2.752 0-5.002-1.964-5.002-4.378s2.243-4.377 5.002-4.377 5.002 1.963 5.002 4.377c0 2.414-2.25 4.377-5.002 4.377zM24.81 6.985c0 .873-.803 1.57-1.794 1.57-.998 0-1.795-.702-1.795-1.57 0-.867.804-1.57 1.795-1.57.99 0 1.794.703 1.794 1.57zm5.096 1.594c-.114-2.103-.663-3.967-2.424-5.502-1.754-1.535-3.884-2.015-6.288-2.121-2.477-.123-9.904-.123-12.381 0-2.398.1-4.527.58-6.288 2.115C.763 4.607.22 6.471.1 8.574c-.14 2.168-.14 8.666 0 10.834.114 2.104.663 3.967 2.425 5.502 1.76 1.535 3.884 2.016 6.288 2.121 2.477.123 9.903.123 12.381 0 2.404-.1 4.534-.58 6.288-2.12 1.755-1.536 2.304-3.4 2.424-5.503.14-2.168.14-8.66 0-10.828zm-3.2 13.154c-.523 1.149-1.534 2.034-2.853 2.496-1.976.686-6.663.528-8.846.528s-6.878.152-8.846-.527c-1.313-.458-2.324-1.342-2.853-2.497-.783-1.728-.603-5.83-.603-7.74 0-1.91-.174-6.017.603-7.74.522-1.149 1.534-2.033 2.853-2.496 1.975-.686 6.663-.528 8.846-.528s6.877-.152 8.846.528c1.312.457 2.323 1.342 2.852 2.496.784 1.728.603 5.83.603 7.74 0 1.91.18 6.018-.603 7.74z" fill="#000"/></svg>
